X:30
T:Cordial Jig (the)
T:Port na Cordiale
M:6/8
R:Jig
S:Francis McPeake
K:G
E|DBB D[cA][cA]|DBBc2e|dBG FGA|BAG AFD|
DBB D[cA][cA]|DBBc2e|dBG FGA|BGGG2:|
|:G|Ggg efg|fed cAF|Ggg gfg|afd cAF|
DBB D[cA][cA]|DBBc2e|dBG FGA|BGGG2:|
